packages/kaspersky-hexa-ui-icons/src/iconsSVGs/24/ChartColumn.svg

<svg xmlns="http://www.w3.org/2000/svg" width="24" height="24" fill="none" viewBox="0 0 24 24"><path d="M0 24h24V0H0z"/><path fill="#000" fill-rule="evenodd" d="M22 15c0 1.1046-.8954 2-2 2h-2c-1.1046 0-2-.8954-2-2V5c0-1.1046.8954-2 2-2h2c1.1046 0 2 .8954 2 2zM8 15c0 1.1046-.8954 2-2 2H4c-1.1046 0-2-.8954-2-2V6c0-1.1046.8954-2 2-2h2c1.1046 0 2 .8954 2 2zm12 0V5h-2v10zM6 15V6H4v9zm7 2c1.1046 0 2-.8954 2-2v-5c0-1.1046-.8954-2-2-2h-2c-1.1046 0-2 .8954-2 2v5c0 1.1046.8954 2 2 2zm0-7v5h-2v-5zm8 9c.5523 0 1 .4477 1 1s-.4477 1-1 1H3c-.5523 0-1-.4477-1-1s.4477-1 1-1z"/></svg>

<svg width="24" height="24" viewBox="0 0 24 24" fill="none" xmlns="http://www.w3.org/2000/svg">
<path d="M21 19C21.5523 19 22 19.4477 22 20C22 20.5523 21.5523 21 21 21H3C2.44772 21 2 20.5523 2 20C2 19.4477 2.44772 19 3 19L21 19Z" fill="black"/>
<path fill-rule="evenodd" clip-rule="evenodd" d="M22 15C22 16.1046 21.1046 17 20 17H18C16.8954 17 16 16.1046 16 15V5C16 3.89543 16.8954 3 18 3L20 3C21.1046 3 22 3.89543 22 5V15ZM20 15V5H18V15H20Z" fill="black"/>
<path fill-rule="evenodd" clip-rule="evenodd" d="M13 17C14.1046 17 15 16.1046 15 15V10C15 8.89543 14.1046 8 13 8L11 8C9.89543 8 9 8.89543 9 10V15C9 16.1046 9.89543 17 11 17H13ZM13 10V15H11V10L13 10Z" fill="black"/>
<path fill-rule="evenodd" clip-rule="evenodd" d="M8 15C8 16.1046 7.10457 17 6 17H4C2.89543 17 2 16.1046 2 15L2 6C2 4.89543 2.89543 4 4 4L6 4C7.10457 4 8 4.89543 8 6L8 15ZM6 15L6 6L4 6L4 15H6Z" fill="black"/>
</svg>
